icon-themes/breeze_svg/sw/res/sidebar/pageproppanel/documentsizeC5_24x24.svg

<svg viewBox="0 0 24 24" xmlns="http://www.w3.org/2000/svg"><path d="m3 4v15h1 16 1v-15zm1 1h16v13h-16zm5.5 3c-1.9329966 0-3.5 1.567-3.5 3.5s1.5670034 3.5 3.5 3.5c.756948 0 1.458668-.24785 2.03125-.65625l-.6875-.75c-.387715.2471-.8498799.40625-1.34375.40625-1.3807119 0-2.5-1.1193-2.5-2.5s1.1192881-2.5 2.5-2.5c.4938701 0 .956035.15905 1.34375.40625l.6875-.75c-.572582-.4085-1.274302-.65625-2.03125-.65625zm3.5 0v1 2 .5h2.25c.690356 0 1.25.5596 1.25 1.25s-.559644 1.25-1.25 1.25-1.25-.5596-1.25-1.25h-1c0 1.2426 1.007359 2.25 2.25 2.25s2.25-1.0074 2.25-2.25-1.007359-2.25-2.25-2.25h-1.25v-1.5h3.25v-1z" fill="#4d4d4d"/></svg>

<svg xmlns="http://www.w3.org/2000/svg" viewBox="0 0 24 24">
 <path 
     style="fill:#4d4d4d" 
     d="M 3 4 L 3 19 L 4 19 L 20 19 L 21 19 L 21 4 L 3 4 z M 4 5 L 20 5 L 20 18 L 4 18 L 4 5 z M 9.5 8 C 7.5670034 8 6 9.567 6 11.5 C 6 13.433 7.5670034 15 9.5 15 C 10.256948 15 10.958668 14.75215 11.53125 14.34375 L 10.84375 13.59375 C 10.456035 13.84085 9.9938701 14 9.5 14 C 8.1192881 14 7 12.8807 7 11.5 C 7 10.1193 8.1192881 9 9.5 9 C 9.9938701 9 10.456035 9.15905 10.84375 9.40625 L 11.53125 8.65625 C 10.958668 8.24775 10.256948 8 9.5 8 z M 13 8 L 13 9 L 13 11 L 13 11.5 L 15.25 11.5 C 15.940356 11.5 16.5 12.0596 16.5 12.75 C 16.5 13.4404 15.940356 14 15.25 14 C 14.559644 14 14 13.4404 14 12.75 L 13 12.75 C 13 13.9926 14.007359 15 15.25 15 C 16.492641 15 17.5 13.9926 17.5 12.75 C 17.5 11.5074 16.492641 10.5 15.25 10.5 L 14 10.5 L 14 9 L 17.25 9 L 17.25 8 L 13 8 z "
     />
</svg>
